X: 4105
M: C
L: 1/8
K: G
uc |\
c |\
|:\
c |\
(B/c/d) d2 dgab | (A/B/c) c2 cfga |\
(B/c/d) d2 dfgb | afge d3 ::\
c |\
(B/c/d) (BG) (A/B/c) (AF) | GABc dgec |\
(B/c/d) (BG) (A/B/c) (AF) | GcBA G3 :|


